icons/family_planning_fill.svg

<svg width="48" height="48" viewBox="0 0 48 48" fill="none" xmlns="http://www.w3.org/2000/svg">
<path fill-rule="evenodd" clip-rule="evenodd" d="M8 6C6.89543 6 6 6.89543 6 8V18C6 19.1046 6.89543 20 8 20H26C27.1046 20 28 19.1046 28 18V8C28 6.89543 27.1046 6 26 6H8ZM15 12C15.5523 12 16 11.5523 16 11C16 10.4477 15.5523 10 15 10C14.4477 10 14 10.4477 14 11C14 11.5523 14.4477 12 15 12ZM12 11C12 11.5523 11.5523 12 11 12C10.4477 12 10 11.5523 10 11C10 10.4477 10.4477 10 11 10C11.5523 10 12 10.4477 12 11ZM15 16C15.5523 16 16 15.5523 16 15C16 14.4477 15.5523 14 15 14C14.4477 14 14 14.4477 14 15C14 15.5523 14.4477 16 15 16ZM12 15C12 15.5523 11.5523 16 11 16C10.4477 16 10 15.5523 10 15C10 14.4477 10.4477 14 11 14C11.5523 14 12 14.4477 12 15ZM19 12C19.5523 12 20 11.5523 20 11C20 10.4477 19.5523 10 19 10C18.4477 10 18 10.4477 18 11C18 11.5523 18.4477 12 19 12ZM20 15C20 15.5523 19.5523 16 19 16C18.4477 16 18 15.5523 18 15C18 14.4477 18.4477 14 19 14C19.5523 14 20 14.4477 20 15ZM23 12C23.5523 12 24 11.5523 24 11C24 10.4477 23.5523 10 23 10C22.4477 10 22 10.4477 22 11C22 11.5523 22.4477 12 23 12ZM24 15C24 15.5523 23.5523 16 23 16C22.4477 16 22 15.5523 22 15C22 14.4477 22.4477 14 23 14C23.5523 14 24 14.4477 24 15Z" fill="black"/>
<path d="M31 16C31 14.3431 32.3431 13 34 13C35.6569 13 37 14.3431 37 16V16.8027C38.7934 17.8401 40 19.7792 40 22V40H41C41.5523 40 42 40.4477 42 41C42 41.5523 41.5523 42 41 42H27C26.4477 42 26 41.5523 26 41C26 40.4477 26.4477 40 27 40H28V22C28 19.7792 29.2066 17.8401 31 16.8027V16Z" fill="black"/>
<path d="M13 27.7778C13 26.9362 13.6579 26.2311 14.5416 26.0469L13.6121 24.1648L6.47911 25.9702L6 24.0299L13.133 22.2245C14.0312 21.9971 14.9649 22.4319 15.3789 23.2703L16 24.528L16.6211 23.2703C17.0351 22.4319 17.9688 21.9971 18.867 22.2245L26 24.0299L25.5209 25.9702L18.3879 24.1648L17.4584 26.0469C18.3421 26.2311 19 26.9362 19 27.7778V38.2222C19 39.2041 18.1046 40 17 40V42H15V40C13.8954 40 13 39.2041 13 38.2222V27.7778Z" fill="black"/>
</svg>

<svg
  xmlns="http://www.w3.org/2000/svg"
  width="24"
  height="24"
  viewBox="0 0 24 24"
  fill="none"
  stroke="currentColor"
  stroke-width="2"
  stroke-linecap="round"
  stroke-linejoin="round"
>
  <path
    fill-rule="evenodd"
    d="M8 6a2 2 0 0 0-2 2v10a2 2 0 0 0 2 2h18a2 2 0 0 0 2-2V8a2 2 0 0 0-2-2zm7 6a1 1 0 1 0 0-2 1 1 0 0 0 0 2m-3-1a1 1 0 1 1-2 0 1 1 0 0 1 2 0m3 5a1 1 0 1 0 0-2 1 1 0 0 0 0 2m-3-1a1 1 0 1 1-2 0 1 1 0 0 1 2 0m7-3a1 1 0 1 0 0-2 1 1 0 0 0 0 2m1 3a1 1 0 1 1-2 0 1 1 0 0 1 2 0m3-3a1 1 0 1 0 0-2 1 1 0 0 0 0 2m1 3a1 1 0 1 1-2 0 1 1 0 0 1 2 0"
    clip-rule="evenodd"
  />
  <path d="M31 16a3 3 0 1 1 6 0v.803A6 6 0 0 1 40 22v18h1a1 1 0 1 1 0 2H27a1 1 0 1 1 0-2h1V22c0-2.22 1.207-4.16 3-5.197z" />
  <path d="M13 27.778c0-.842.658-1.547 1.542-1.731l-.93-1.882L6.48 25.97 6 24.03l7.133-1.806a1.97 1.97 0 0 1 2.246 1.046L16 24.528l.621-1.258a1.97 1.97 0 0 1 2.246-1.046L26 24.03l-.48 1.94-7.132-1.805-.93 1.882c.884.184 1.542.89 1.542 1.73v10.445c0 .982-.895 1.778-2 1.778v2h-2v-2c-1.105 0-2-.796-2-1.778z" />
</svg>
